src/basic/600/u27F6-longarrow.svg

<svg width="46" height="24" viewBox="0 0 46 24" fill="none" xmlns="http://www.w3.org/2000/svg">
<path fill-rule="evenodd" clip-rule="evenodd" d="M43.3049,12.012l-7.1584,-7.15844l0.7071,-0.70711l8,8.00005l0.3496,0.3496l-0.3458,0.3535l-8,8.1787l-0.7148,-0.6993l7.1572,-7.317h-43.2998v-1z" fill="black"/>
</svg>

<svg width="46" height="24" viewBox="0 0 46 24" fill="none" xmlns="http://www.w3.org/2000/svg">
<path fill-rule="evenodd" clip-rule="evenodd" d="M43.3049 12.012L36.1465 4.85356L36.8536 4.14645L44.8536 12.1465L45.2032 12.4961L44.8574 12.8496L36.8574 21.0283L36.1426 20.329L43.2998 13.012H0V12.012H43.3049Z" fill="black"/>
</svg>
